gama.ui.shared/icons_svg/light/views/tabs/view.panel.svg

<?xml version="1.0" encoding="UTF-8" standalone="no"?>
<!DOCTYPE svg PUBLIC "-//W3C//DTD SVG 1.1//EN" "http://www.w3.org/Graphics/SVG/1.1/DTD/svg11.dtd">
<svg xmlns="http://www.w3.org/2000/svg" xmlns:dc="http://purl.org/dc/elements/1.1/" version="1.1" xmlns:xl="http://www.w3.org/1999/xlink" viewBox="-566.6491 -2973.7685 24.75 24.75" width="24.75" height="24.75">
  <defs/>
  <g id="SOURCES" fill="none" stroke="none" stroke-dasharray="none" fill-opacity="1" stroke-opacity="1">
    <title>SOURCES</title>
    <g id="SOURCES_Light">
      <title>Light</title>
      <g id="Group_12726">
        <g id="Group_9830">
          <title>user-circle</title>
          <g id="Graphic_9831">
            <path d="M -549.6961 -2958.2365 L -552.1181 -2959.3355 C -551.2991 -2959.9725 -550.7741 -2960.9735 -550.7741 -2962.0935 C -550.7741 -2964.0255 -552.3421 -2965.5935 -554.2741 -2965.5935 C -556.2061 -2965.5935 -557.7741 -2964.0255 -557.7741 -2962.0935 C -557.7741 -2960.9735 -557.2491 -2959.9725 -556.4301 -2959.3355 L -558.8521 -2958.2365 C -559.0831 -2958.1315 -559.2861 -2957.9775 -559.4471 -2957.7955 C -560.1611 -2958.8175 -560.5811 -2960.0565 -560.5811 -2961.4005 C -560.5741 -2964.8725 -557.7531 -2967.6935 -554.2741 -2967.6935 C -550.7951 -2967.6935 -547.9741 -2964.8725 -547.9741 -2961.3935 C -547.9741 -2960.0565 -548.3941 -2958.8105 -549.1011 -2957.7885 C -549.2621 -2957.9775 -549.4651 -2958.1245 -549.6961 -2958.2295 M -557.0741 -2962.0935 C -557.0741 -2963.6405 -555.8211 -2964.8935 -554.2741 -2964.8935 C -552.7271 -2964.8935 -551.4741 -2963.6405 -551.4741 -2962.0935 C -551.4741 -2960.5465 -552.7271 -2959.2935 -554.2741 -2959.2935 C -555.8211 -2959.2935 -557.0741 -2960.5465 -557.0741 -2962.0935 M -554.2741 -2955.0935 C -556.1571 -2955.0935 -557.8441 -2955.9195 -558.9991 -2957.2215 C -558.8941 -2957.3825 -558.7401 -2957.5155 -558.5581 -2957.5925 L -555.7021 -2958.8945 C -555.2681 -2958.6985 -554.7851 -2958.5935 -554.2741 -2958.5935 C -553.7631 -2958.5935 -553.2801 -2958.6985 -552.8461 -2958.8945 L -549.9901 -2957.5925 C -549.8081 -2957.5085 -549.6611 -2957.3825 -549.5491 -2957.2215 C -550.7041 -2955.9125 -552.3911 -2955.0935 -554.2741 -2955.0935 M -554.2741 -2968.3935 C -558.1381 -2968.3935 -561.2741 -2965.2575 -561.2741 -2961.3935 C -561.2741 -2957.5295 -558.1381 -2954.3935 -554.2741 -2954.3935 C -550.4101 -2954.3935 -547.2741 -2957.5295 -547.2741 -2961.3935 C -547.2741 -2965.2575 -550.4101 -2968.3935 -554.2741 -2968.3935" fill="#5c76a2"/>
          </g>
        </g>
        <g id="Graphic_12714"/>
      </g>
    </g>
  </g>
</svg>

<svg height="24.75" viewBox="-566.649 -2973.769 24.75 24.75" width="24.75" xmlns="http://www.w3.org/2000/svg"><path d="m-549.6961-2958.2365-2.422-1.099c.819-.637 1.344-1.638 1.344-2.758 0-1.932-1.568-3.5-3.5-3.5s-3.5 1.568-3.5 3.5c0 1.12.525 2.121 1.344 2.758l-2.422 1.099c-.231.105-.434.259-.595.441-.714-1.022-1.134-2.261-1.134-3.605.007-3.472 2.828-6.293 6.307-6.293s6.3 2.821 6.3 6.3c0 1.337-.42 2.583-1.127 3.605-.161-.189-.364-.336-.595-.441m-7.378-3.864c0-1.547 1.253-2.8 2.8-2.8s2.8 1.253 2.8 2.8-1.253 2.8-2.8 2.8-2.8-1.253-2.8-2.8m2.8 7c-1.883 0-3.57-.826-4.725-2.128.105-.161.259-.294.441-.371l2.856-1.302c.434.196.917.301 1.428.301s.994-.105 1.428-.301l2.856 1.302c.182.084.329.21.441.371-1.155 1.309-2.842 2.128-4.725 2.128m0-13.3c-3.864 0-7 3.136-7 7s3.136 7 7 7 7-3.136 7-7-3.136-7-7-7" fill="#5c76a2"/></svg>
